htdocs/bitrix/js/ui/icons/service/images/ui-service-googleads.svg

<svg width="42" height="42" viewBox="-9 -9 42 42" fill="none" xmlns="http://www.w3.org/2000/svg">
<path fill-rule="evenodd" clip-rule="evenodd" d="M9.20242 17.0632C8.9593 15.621 8.08906 14.2936 6.70691 13.5055C5.31257 12.7105 3.69736 12.6355 2.30273 13.1637L7.31213 4.59509C7.30831 5.46913 7.53172 6.35576 8.00615 7.16729L11.4969 13.1383L9.20242 17.0632V17.0632ZM10.324 0.526554C12.2251 -0.557404 14.656 0.0858647 15.7536 1.96333L23.8078 15.7401C24.9054 17.6176 24.254 20.0183 22.3529 21.1022C20.4518 22.1862 18.0209 21.5429 16.9233 19.6655L8.86912 5.88869C7.77152 4.01122 8.42288 1.61051 10.324 0.526554ZM5.96645 14.6564C7.86755 15.7404 8.51892 18.1411 7.42132 20.0186L7.41769 20.0248C6.32009 21.9022 3.88916 22.5455 1.98805 21.4616C0.0869457 20.3776 -0.564421 17.9769 0.533183 16.0994L0.536805 16.0932C1.63441 14.2157 4.06534 13.5725 5.96645 14.6564Z" fill="white"/>
</svg>

<svg width="42" height="42" viewBox="-9 -9 42 42" fill="none" xmlns="http://www.w3.org/2000/svg"><path fill-rule="evenodd" clip-rule="evenodd" d="M9.202 17.063a5.056 5.056 0 0 0-2.495-3.557 5.176 5.176 0 0 0-4.404-.342l5.01-8.569c-.005.874.219 1.76.693 2.572l3.49 5.971-2.294 3.925zM10.324.527c1.901-1.084 4.332-.441 5.43 1.436l8.054 13.777a3.899 3.899 0 0 1-1.455 5.362c-1.901 1.084-4.332.44-5.43-1.436L8.87 5.889A3.899 3.899 0 0 1 10.324.527zm-4.358 14.13a3.899 3.899 0 0 1 1.455 5.362l-.003.006c-1.098 1.877-3.529 2.52-5.43 1.437a3.899 3.899 0 0 1-1.455-5.363l.004-.006c1.097-1.877 3.528-2.52 5.43-1.437z" fill="#fff"/></svg>
